X:848
T:Hoch Hey Johnnie Lad
S:Adapted from "Jerry O'Sullivan's" as played by Lunasa
Z:Nigel Gatherer
M:4/4
L:1/8
K:G
G3 B AGAB | GEDE A3 B  | G3 B AGAB | GEDE G2 G2 :|
degB AGAB | degd e2 e2 | degB AGAB | GEDE G2 G2 :|
